docs/local/img/sprites/yt.svg

<svg width="14" height="10" viewBox="0 0 14 10" xmlns="http://www.w3.org/2000/svg">
<path fill-rule="evenodd" clip-rule="evenodd" d="M1.75788 9.23409C1.52253 9.16446 1.30778 9.04058 1.13176 8.87292C0.95575 8.70525 0.823632 8.49871 0.746559 8.27074C0.306143 7.09242 0.175649 2.17216 1.02386 1.20084C1.30616 0.884869 1.70473 0.690331 2.13305 0.659456C4.40853 0.420608 11.4389 0.452454 12.2463 0.739072C12.4734 0.810994 12.6809 0.932154 12.8532 1.09347C13.0255 1.25479 13.1582 1.45209 13.2413 1.67058C13.7225 2.8887 13.7388 7.31535 13.1761 8.4857C13.0268 8.79035 12.7769 9.03712 12.4665 9.18632C11.6183 9.60032 2.88339 9.59236 1.75788 9.23409V9.23409ZM5.37093 6.92523L9.44885 4.85521L5.37093 2.76928V6.92523Z"/>
</svg>

<svg width="14" height="10" viewBox="0 0 14 10" xmlns="http://www.w3.org/2000/svg"><path fill-rule="evenodd" clip-rule="evenodd" d="M1.758 9.234a1.542 1.542 0 01-.626-.361 1.492 1.492 0 01-.385-.602c-.44-1.179-.571-6.099.277-7.07.282-.316.68-.51 1.109-.542C4.409.421 11.439.452 12.246.74a1.557 1.557 0 01.995.932c.482 1.218.498 5.644-.065 6.815-.15.304-.4.551-.71.7-.848.414-9.583.406-10.708.048zM5.37 6.925l4.078-2.07L5.37 2.77v4.156z"/></svg>
